src/assets/icons/pul-icon-video-projected-medium.svg

<!-- Generated by IcoMoon.io -->
<svg version="1.1" xmlns="http://www.w3.org/2000/svg" width="16" height="16" viewBox="0 0 16 16">
<title>video-projected-medium</title>
<path d="M9.667 9.333h-6.667c-0.184 0-0.333 0.149-0.333 0.333s0.149 0.333 0.333 0.333h6.667c0.184 0 0.333-0.149 0.333-0.333s-0.149-0.333-0.333-0.333zM3 6.667c1.654 0 3-1.346 3-3s-1.346-3-3-3-3 1.346-3 3 1.346 3 3 3zM3 1.333c1.287 0 2.333 1.047 2.333 2.333s-1.047 2.333-2.333 2.333-2.333-1.047-2.333-2.333 1.047-2.333 2.333-2.333zM8.667 6.667c1.103 0 2-0.897 2-2s-0.897-2-2-2-2 0.897-2 2 0.897 2 2 2zM8.667 3.333c0.735 0 1.333 0.597 1.333 1.333s-0.598 1.333-1.333 1.333-1.333-0.598-1.333-1.333c0-0.736 0.598-1.333 1.333-1.333zM15.67 8.327c-0.209-0.139-0.481-0.155-0.747-0.045l-2.923 1.218v-1.167c0-0.551-0.449-1-1-1h-9.333c-0.551 0-1 0.449-1 1v5.333c0 0.551 0.449 1 1 1h9.333c0.551 0 1-0.449 1-1v-1.167l2.923 1.218c0.117 0.049 0.235 0.072 0.348 0.072 0.145 0 0.282-0.039 0.399-0.117 0.21-0.139 0.33-0.384 0.33-0.673v-4c0-0.289-0.12-0.533-0.33-0.673zM11 14h-9.333c-0.184 0-0.333-0.149-0.333-0.333v-5.333c0-0.184 0.149-0.333 0.333-0.333h9.333c0.184 0 0.333 0.149 0.333 0.333v1.665c0 0.001 0 0.001 0 0.001v3.668c0 0.184-0.149 0.333-0.333 0.333zM15.333 13c0 0.071-0.019 0.109-0.033 0.118s-0.055 0.012-0.121-0.015l-3.179-1.325v-1.556l3.18-1.324c0.065-0.027 0.108-0.025 0.121-0.015 0.013 0.008 0.033 0.047 0.033 0.117v4z"></path>
</svg>

<svg xmlns="http://www.w3.org/2000/svg" viewBox="0 0 16 16">
    <path d="M9.667 9.333H3a.333.333 0 1 0 0 .666h6.667a.333.333 0 1 0 0-.666zM3 6.667c1.654 0 3-1.346 3-3s-1.346-3-3-3-3 1.346-3 3 1.346 3 3 3zm0-5.334c1.287 0 2.333 1.047 2.333 2.333S4.286 5.999 3 5.999.667 4.952.667 3.666 1.714 1.333 3 1.333zm5.667 5.334c1.103 0 2-.897 2-2s-.897-2-2-2-2 .897-2 2 .897 2 2 2zm0-3.334a1.334 1.334 0 0 1 0 2.666 1.334 1.334 0 0 1 0-2.666zm7.003 4.994c-.209-.139-.481-.155-.747-.045L12 9.5V8.333c0-.551-.449-1-1-1H1.667c-.551 0-1 .449-1 1v5.333c0 .551.449 1 1 1H11c.551 0 1-.449 1-1v-1.167l2.923 1.218a.9.9 0 0 0 .348.072.712.712 0 0 0 .399-.117c.21-.139.33-.384.33-.673v-4c0-.289-.12-.533-.33-.673zM11 14H1.667a.333.333 0 0 1-.333-.333V8.334c0-.184.149-.333.333-.333H11c.184 0 .333.149.333.333v5.334a.333.333 0 0 1-.333.333zm4.333-1c0 .071-.019.109-.033.118s-.055.012-.121-.015L12 11.778v-1.556l3.18-1.324c.065-.027.108-.025.121-.015.013.008.033.047.033.117v4z"/>
</svg>
